!!!COM:	Praetorius, Michael
!!!OTL:	Gott der Vater wohn uns bei
**kern	**kern	**kern	**kern
*ICvox	*ICvox	*ICvox	*ICvox
*I"Bassus	*I"Tenor	*I"Altus	*I"Diskantus
*clefF4	*clefGv2	*clefG2	*clefG2
*k[b-]	*k[b-]	*k[b-]	*k[b-]
*M2/2	*M2/2	*M2/2	*M2/2
!!Meter Interpreted, Nat Condit-Schultz, 2018, Rule 2
*met(c)	*met(c)	*met(c)	*met(c)
2F	2c	2f	2cc
2C	2e	2g	2cc
2G	2d	2b-	2dd
2E	2c	2g	2ee
2D	2f	2a	2ff
2D	2d	2a	2ff
2A	2c	2a	2ee
=	=	=	=
2B-	2d	2f	2dd
2F	2c	2a	2ff
2E	2c	2g	2cc
2D	2d	2f	2a
2BB-	2d	2g	2b-
2F	1c	2f	2a
2C	.	2e	2g
1F	1A	1c	1f
=:|	=:|	=:|	=:|
2D	2F	2d	2a
2C	2G	2e	2cc
2F	2A	2c	2a
2F	2A	2c	2f
2D	2F	2d	2a
2G	2G	2d	2b-
2F	2A	2f	2cc
=	=	=	=
2D	2A	2a	2ff
2A	2c	2a	2ee
2F	2d	2a	2ff
2.c	2.e	2.cc	2.gg
4d	4f	4a	4ff
2c	1g	2cc	2ee
2G	.	2bn	2dd
1.C	1.e	1.cc	1.cc
=	=	=	=
2c	2e	2g	2cc
2A	2e	2a	2cc
2d	2d	2b-	2ff
2c	2e	2g	2ee
2A	2f	2a	2cc
1B-	1d	1f	2.dd
.	.	.	8ccL
.	.	.	8b-J
2F	2c	2f	2a
=	=	=	=
2G	2B-	2d	2g
2D	2d	2f	2a
2F	2c	2f	2a
2.C	2.e	2.g	2.cc
4G	4d	4g	4b-
4A	1c	2f	2a
8GL	.	.	.
8FJ	.	.	.
2c	.	2e	2g
1F	1A	1c	1f
=	=	=	=
2D	2A	2d	2f
2G	2B-	2e	2g
2F	2c	2f	2a
2A	2c	2f	2a
2B-	2B-	2d	2f
2G	2B-	2e	2g
2F	2c	2f	2a
=	=	=	=
2D	2d	2a	2ff
2A	2c	2a	2ee
2F	2d	2a	2ff
2.c	2.e	2.cc	2.gg
4d	4f	4a	4ff
2c	1g	2cc	2ee
2G	.	2bn	2dd
1.C	1.e	1.cc	1.cc
=	=	=	=
2c	2e	2g	2cc
2A	2e	2a	2cc
2d	2d	2b-	2ff
2c	2e	2g	2ee
2A	2f	2a	2cc
1B-	1d	1f	2.dd
.	.	.	8ccL
.	.	.	8b-J
2F	2c	2f	2a
=	=	=	=
2G	2B-	2d	2g
2D	2d	2f	2a
2F	2c	2f	2a
2.C	2.e	2.g	2.cc
4G	4d	4g	4b-
4A	1c	2f	2a
8GL	.	.	.
8FJ	.	.	.
2c	.	2e	2g
1F	1A	1c	1f
=	=	=	=
2D	2A	2d	2f
2G	2B-	2e	2g
2F	2c	2f	2a
2A	2c	2f	2a
2B-	2B-	2d	2f
2G	2B-	2e	2g
2F	2c	2f	2a
=	=	=	=
2D	2d	2f	2b-
2.C	2.e	2.g	2.cc
4G	4d	4g	4b-
2D	2d	2f	2a
2BB-	2d	2f	2b-
2F	2c	2f	2a
2C	2c	2e	2g
00F	00A	00c	00f
==	==	==	==
*-	*-	*-	*-
